X: 697
T: Johnny the Blacksmith
C:Kenny Baker's version
B: jims roots
M:4/4
L:1/8
Q: 1/4=100
K:A
V:1 
EF |:"A"ABcA "E"BcdA | "A"c2c2 c2EF | ABcA "E"Bcde |
"A"c2c2 c2EF | ABcA "E"BcdA | "A"cdeg "D"fefa |
"A"edce "E"dcBd |[1 "A"(3cec A2 A2 EF:| [2 "A"(3cec A2 A2 eg||
|:"A"aefe (3faf ed | cABA c2A2 | aega faeg |
"E"be=g^g (3fgf eg | "A"aega (3faf ec | "D"dAcd BdAc |
"E"defg afdf | [1 edBG "A"A2 (3efg :|[2 edBG "A"A2 |]
% abcbook-tune_id 6298c25dba47f388415d51d8


% abcbook-boost 0
% abcbook-tablature 
% abcbook-transpose 
% abcbook-lastupdated 1654178399288
% abcbook-soundfonts 
% abcbook-repeats 1


